logos/coda-icon.svg

<?xml version="1.0" encoding="UTF-8"?>
<svg width="256px" height="275px" viewBox="0 0 256 275" version="1.1" xmlns="http://www.w3.org/2000/svg" preserveAspectRatio="xMidYMid">
    <title>Coda</title>
    <g>
        <path d="M233.064936,2.84217094e-14 L22.914119,2.84217094e-14 C10.2929977,0.022900038 0.0575574274,10.2302724 0,22.8512832 L0,251.419969 C0.057576287,264.047554 10.3003805,274.259168 22.9280825,274.278234 L233.078899,274.278234 C245.705457,274.259147 255.946252,264.046426 256,251.419969 L256,240.758829 C255.616003,227.039681 255.232007,198.470341 255.232007,185.519186 C255.232007,178.279107 249.883983,172.184035 243.006954,172.184035 C235.361933,172.184035 230.397905,176.757084 226.578886,180.56214 C215.114844,190.853247 197.918783,192.759266 183.012736,190.092236 C176.14269,188.563231 169.642676,186.664194 164.301634,183.236152 C147.866583,173.706057 137.170535,155.804838 137.170535,136.758611 C137.170535,117.712384 147.866583,100.18818 164.294652,90.2810702 C170.026672,86.8530286 176.526686,84.9470096 183.019718,83.424987 C197.541768,80.7579567 215.114844,82.656994 226.578886,92.9481005 C230.781902,96.7601385 235.74593,101.326206 243.006954,101.326206 C249.883983,101.326206 255.232007,95.2311343 255.232007,87.9910546 C255.232007,75.4238961 255.616003,46.4705594 256,32.7583931 L256,22.8512832 C256,10.2841247 245.680967,2.84217094e-14 233.071918,2.84217094e-14 L233.064936,2.84217094e-14 Z" fill="#F46A54"></path>
    </g>
</svg>

<svg preserveAspectRatio="xMidYMid" viewBox="0 0 256 275" xmlns="http://www.w3.org/2000/svg">
  <path fill="#F46A54" d="M233.065 0H22.915C10.292.023.057 10.23 0 22.851V251.42c.058 12.628 10.3 22.84 22.928 22.858h210.15c12.627-.019 22.868-10.232 22.922-22.858v-10.661c-.384-13.72-.768-42.289-.768-55.24 0-7.24-5.348-13.335-12.225-13.335-7.645 0-12.61 4.573-16.428 8.378-11.464 10.291-28.66 12.197-43.566 9.53-6.87-1.529-13.37-3.428-18.711-6.856-16.435-9.53-27.131-27.431-27.131-46.477 0-19.047 10.696-36.57 27.124-46.478 5.732-3.428 12.232-5.334 18.725-6.856 14.522-2.667 32.095-.768 43.559 9.523 4.203 3.812 9.167 8.378 16.428 8.378 6.877 0 12.225-6.095 12.225-13.335 0-12.567.384-41.52.768-55.233v-9.907C256 10.284 245.681 0 233.072 0h-.007Z"/>
</svg>
